X:248
T:The Merry Sisters of Fate
M:4/4
L:1/8
R:reel
D:Lunasa: The Merry Sisters of Fate
N:Learned from Lunasa: The Merry Sisters of Fate
Z:Michael Abraham Shulman
N:Not the Altan tune `The THREE Merry Sisters of Fate'  :-)
N:Howard plays this in A minor (sounds better on a fiddle)
K:Em
|:e~A3 egfd|e~A3 gdBd|e~A3 egfd|B~G3 DGBd:|
eaaf g2fg|eaag edBd|eaaf g2fg|egdf gdBd|
eaaf g2fg|egab c'bag|eaaf g2fg|egdf gdBG||
AGfg egdg|e~A3 eABB|egfg egdf|g~G3 DGBd|
egfg egdg|e~A3 eABB|DGBd g2ga|aggf g2fg||
